X:07AbDB
T:Admiral Benbow (2)
Z:Digital Tradition <sniff.numachi.com/~rickheit/dtrad/
M:4/4
L:1/8
K:A
E2| Ac BG A2 EA| G2 B,F E2 B3/2c/2| dB c/2c/2d e2 de| 
B2 AF E2 cB|A3/2A/2 GF (FE) CD|(Ed) cB A2||
